!!!SOCIAL_FUNCTION:	songs of war
!!!PDT:	1918

Specific Region: Dakotas, Minnesota, Montana, Nebraska
!!!REG: Dakotas and Montana
!!!LING_GROUP: Siouan
!!!LANG: Tone
!!!OTL@ENG: Song of the Badger Society (a)
!!!ONM: No. 120
**kern
*Imale
*clefF4
*k[b-]
*M2/4
*MM80
16d
8.d
12f
12d
12d
=2
16c#
8.d
12f
12d
12d
=3||
*M3/4
[2c#
8.c#]
16d
=4||
*M2/4
16c#
8.c#
12d
12c#
12c#
=5
12A
12A
12F
8.F
16F
=6||
*M3/4
[2F
8.F]
16F
=7||
*M2/4
16F
8.F
12G
12G
12F
=8
16D
8.F
12G
12G
12F
=9
2D
=10
4.D
8D
=11
4D
4D
==
*-
!!!CNT: Native American -- Sioux
!!!MRD: 1911/07//-1914///
!!!OCL: Frances Densmore
!!!YOR1: Teton Sioux Music, Bulletin 61,
!!!YOR2: Bureau of American Ethnology, Smithsonian Institution
!!!PPR: Government Printing Office
!!!PPP: Washington, D.C.
!!!PDT: 1918///
!!!ENC: Craig Stuart Sapp
!!!END: 2002/03/25/
!!!EEV: 2002/03/31/
!!!AGN: War Song
!!!MPN@@SIO: Chetang'-hota
!!!MPN@ENG: Gray Hawk
!!!TXO: Teton Sioux
!!!MLC: Standing Rock Reservation, South Dakota, United States of America
!!!ARL: 45.9/-100.7#
!!!catalog: Catalogue No. 553
!!!PPG: 325
!!!EFL: 120/245
!!!VTS: 2532793557
